X:1
T:Peri-meri-dictum Domini
M:4/4
L:1/4
K:C
 E/2| EE/2-F/2 G G| A/2B/2 c G2| E/2E/2 E/2F/2 G G|A/2-B/2 c G2| c/2c/2 c E E|\
 D E F2| C E D E| C/2C/2 E D E| c/2c/2 c/2c/2 E E| D D C3/2||
